!!!OTL: Liebe mit Tr&auml;nen (84), S. 227
!!!id: T0241
**kern
*clefG2
*k[f#]
*G:
{16g
=1
16g
4d
8d
=2
4g
8g
=3
4b
8g
=4
4g
8g}
=5
{4d
8f#
=6
4a
8a
=7
8cc
8b
8a
=8
4g}
8r
=9
{4b
8dd
=10
4a
8g
=11
8g
8f#
8e
=12
4e
8d}
=13
{4d
8f#
=14
4a
16a
16a
=15
4a
8a
=16
4b}
8r
=17
{4cc
8ee
=18
4dd
8b
=19
8dd
8cc
8a
=20
4g}
8r
==
*-
!!!minrhy: 16
!!!meters: 3/8 ]  ZZ[5
!!!cut: Liebe mit Tr&auml;nen (84), S. 227
!!!reg: Luxemburg
!!!trd: Singendes Volk, Esch-Alzette 1937 posth.
!!!rhy1:   X__X_  X__X_  X__X_  X__X_   (x2)
!!!rhy2: X__X_  X__X_  X_X_X_  X__0
!!!key: T0241  16  G 3/8 ]  ZZ[5
!!!mod: HEPTATONIK IONISCH]  AMBITUS[9
!!!kad: 11-531
!!!akz: -5131_-5241_321-6_-5223_4551_
!!!fot: 'a__b__c__bw_d__
!!!for: 'a__b__b__c__b__
!!!fok: '^a_^a_^d_/__^d_
!! PHRAS[VOLLTAKTIG]
!!!fkt: Liebeslieder
!!!bem: Blascheid, fff Kaisen-Kolbach, 1903
!! THILL, Mathias:
!! PR[5] 2K[10] 2G[19] 3K[0] 3G[0] 4A[0] 4Ü[0] 5A[0] 6K[0] 6G[5]
!! 7K[5] 7G[0] 8A[0] MEHR[0] SI[38] ABS[21] SR[29] SP[10]
!! ST[8] 2k[10] 2g[33] 3k[5] 3g[0] 4d[5] 4ü[0] 5d[5] 6k[0] 6g[0]
!! 7k[0] 7g[0] 8d[0] mehr[0] si[57] dm[-19] sr[43] sp[14]
!! 1F[61] 2F[39] 3F[0] 4F[0] LF[0] 2P[0] 3P[0] 4P[0] TRI[0] DF[2] AB[23]
!! TF[0] U3K[0] U3[0] U4[0] U4Ü[0] U5[18] U6K[0] U6[14] U7K[0] U7[5]
!! N1[9] N2K[0] N2[23] N3K[0] N3[23] N4[9] N4Ü[0] N5[0] N6K[0] N6[0]
!!!n7k: 0] N7[0] O1[0] O2K[0] O2[0] O3K[0] O3[0] HÖ[0
!!!RNB: symbol: &auml;      = a umlaut  (UTF-8: Å„)
